Lila_HD/actions/scalable/minuet-intervals.svg

<?xml version="1.0" encoding="UTF-8" standalone="no"?>
<!-- Created with Inkscape (http://www.inkscape.org/) -->

<svg
   xmlns:dc="http://purl.org/dc/elements/1.1/"
   xmlns:cc="http://creativecommons.org/ns#"
   xmlns:rdf="http://www.w3.org/1999/02/22-rdf-syntax-ns#"
   xmlns:svg="http://www.w3.org/2000/svg"
   xmlns="http://www.w3.org/2000/svg"
   xmlns:xlink="http://www.w3.org/1999/xlink"
   xmlns:sodipodi="http://sodipodi.sourceforge.net/DTD/sodipodi-0.dtd"
   xmlns:inkscape="http://www.inkscape.org/namespaces/inkscape"
   id="svg3521"
   height="96"
   viewBox="0 0 418.90909 418.90909"
   width="96"
   version="1.1"
   sodipodi:docname="minuet-intervals.svg"
   inkscape:version="0.92.1 r15371">
  <sodipodi:namedview
     pagecolor="#ffffff"
     bordercolor="#666666"
     borderopacity="1"
     objecttolerance="10"
     gridtolerance="10"
     guidetolerance="10"
     inkscape:pageopacity="0"
     inkscape:pageshadow="2"
     inkscape:window-width="1280"
     inkscape:window-height="972"
     id="namedview8"
     showgrid="false"
     inkscape:zoom="2.0690086"
     inkscape:cx="-2.9278332"
     inkscape:cy="10.758338"
     inkscape:window-x="0"
     inkscape:window-y="26"
     inkscape:window-maximized="1"
     inkscape:current-layer="g2574" />
  <defs
     id="defs4339">
    <style
       id="current-color-scheme"
       type="text/css">.ColorScheme-Text {
        color:#4d4d4d;
      }</style>
    <linearGradient
       inkscape:collect="always"
       xlink:href="#linearGradient6139-0"
       id="linearGradient4071"
       gradientUnits="userSpaceOnUse"
       gradientTransform="matrix(1.1071428,0,0,1.1071426,-4.9939026,-3.620687)"
       x1="6"
       y1="47.000011"
       x2="90"
       y2="47.000011" />
    <linearGradient
       id="linearGradient6139-0">
      <stop
         id="stop6141-2"
         offset="0"
         style="stop-color:#b2babc;stop-opacity:1" />
      <stop
         style="stop-color:#ffffff;stop-opacity:1;"
         offset="0.25"
         id="stop6151-0" />
      <stop
         style="stop-color:#96a1a4;stop-opacity:1"
         offset="0.5"
         id="stop6147-1" />
      <stop
         id="stop6149-4"
         offset="0.75"
         style="stop-color:#f9fafb;stop-opacity:1;" />
      <stop
         id="stop6143-4"
         offset="1"
         style="stop-color:#b2b9bc;stop-opacity:1" />
    </linearGradient>
    <linearGradient
       gradientTransform="translate(0.1489535,0.415026)"
       inkscape:collect="always"
       xlink:href="#linearGradient3832-0-6-1-1"
       id="linearGradient4129"
       x1="1.5"
       y1="88.171875"
       x2="94.5"
       y2="88.171875"
       gradientUnits="userSpaceOnUse" />
    <linearGradient
       id="linearGradient3832-0-6-1-1">
      <stop
         style="stop-color:#000000;stop-opacity:1;"
         offset="0"
         id="stop3834-6-3-7-1" />
      <stop
         id="stop3872-2-4"
         offset="0.1"
         style="stop-color:#000000;stop-opacity:0.58823532;" />
      <stop
         style="stop-color:#000000;stop-opacity:0.58823532;"
         offset="0.89999998"
         id="stop3844-6-2-7-6" />
      <stop
         style="stop-color:#000000;stop-opacity:1;"
         offset="1"
         id="stop3836-5-0-2-9" />
    </linearGradient>
    <radialGradient
       inkscape:collect="always"
       xlink:href="#linearGradient3737"
       id="radialGradient7462"
       gradientUnits="userSpaceOnUse"
       gradientTransform="matrix(0.97513378,0,0,0.04919072,34.047649,80.581722)"
       cx="13.948145"
       cy="44.892841"
       fx="13.948145"
       fy="44.892841"
       r="43.199203" />
    <linearGradient
       id="linearGradient3737">
      <stop
         offset="0"
         style="stop-color:#ffffff;stop-opacity:1"
         id="stop3739" />
      <stop
         offset="1"
         style="stop-color:#ffffff;stop-opacity:0"
         id="stop3741" />
    </linearGradient>
    <radialGradient
       inkscape:collect="always"
       xlink:href="#linearGradient3737"
       id="radialGradient7464"
       gradientUnits="userSpaceOnUse"
       gradientTransform="matrix(0.88832663,0,0,0.04919072,31.959518,-90.31726)"
       cx="13.948145"
       cy="44.892841"
       fx="13.948145"
       fy="44.892841"
       r="43.199203" />
    <linearGradient
       inkscape:collect="always"
       xlink:href="#linearGradient3737"
       id="linearGradient4767"
       gradientUnits="userSpaceOnUse"
       x1="2.7713892"
       y1="-28.64156"
       x2="50.527882"
       y2="14.514202" />
    <clipPath
       id="clipPath4156-4-1"
       clipPathUnits="userSpaceOnUse">
      <path
         inkscape:connector-curvature="0"
         id="path4158-0-8"
         d="m 27.046336,-55.695463 -14.21366,13.321486 h 0.06127 l 15.653407,21.770763 10.231384,-10.546177 C 38.561832,-32.30156 27.468089,-54.819245 27.046336,-55.695463 Z M 9.6468554,-39.382809 -5.2407289,-25.32124 15.987863,-7.8059573 26.372412,-18.382966 Z m 31.4906096,12.951445 -9.741259,9.713584 8.944804,12.4580526 7.780753,-7.5550056 z m -49.8397109,4.378822 -13.7541661,12.9822847 26.2830181,13.84571 0.06127,-0.0617 -0.122531,-0.0617 L 13.598503,-5.4007374 -8.7022409,-22.052595 Z m 38.0154159,7.400825 -9.802525,9.7752596 11.579232,9.5594001 7.62759,-7.40083 -8.669108,-11.0087257 z m 20.187073,5.6739697 -7.382526,7.2158 6.187844,8.54179 5.820249,-6.13651996 z m -32.195166,6.32154 -9.5574606,9.49772 13.6622686,7.1849703 7.933918,-7.6783603 z m 23.311629,2.37443004 -7.10683,6.93826996 8.362778,6.9074403 5.360756,-5.6739699 -0.06127,-0.0925 -0.0919,0.12335 -6.463539,-8.20258036 z m -8.730374,8.54178036 -7.505057,7.3391599 10.353916,5.45811 c 1.397496,-1.32103 5.67514,-6.12292 5.850882,-6.32154 z"
         style="opacity:0.6;fill:#ffffff;fill-opacity:1;stroke:none" />
    </clipPath>
  </defs>
  <metadata
     id="metadata3526">
    <rdf:RDF>
      <cc:Work
         rdf:about="">
        <dc:format>image/svg+xml</dc:format>
        <dc:type
           rdf:resource="http://purl.org/dc/dcmitype/StillImage" />
        <dc:title></dc:title>
      </cc:Work>
    </rdf:RDF>
  </metadata>
  <g
     transform="matrix(4.3636364,0,0,4.3636364,-2.2e-6,-4479.3588)"
     id="layer1-3"
     inkscape:label="Livello 1">
    <g
       id="g2574"
       style="display:inline"
       transform="translate(-0.14895645,1026.1047)">
      <path
         style="display:inline;opacity:0.15;fill:#000000;fill-opacity:1;fill-rule:nonzero;stroke:none"
         d="M 89.29181,0.415026 H 7.0060911 c -3.798848,0 -6.8571352,3.058285 -6.8571352,6.8571399 V 89.557884 c 0,3.798857 3.0582872,6.857142 6.8571352,6.857142 H 89.29181 c 3.798857,0 6.857147,-3.058285 6.857147,-6.857142 V 7.2721659 c 0,-3.7988549 -3.05829,-6.8571399 -6.857147,-6.8571399 z"
         id="path3288"
         inkscape:connector-curvature="0" />
      <path
         inkscape:connector-curvature="0"
         id="path4085"
         d="M 88.648954,1.165026 H 7.6489471 c -3.739492,0 -6.749993,3.010499 -6.749993,6.7499969 V 88.915026 c 0,3.739501 3.010501,6.75 6.749993,6.75 H 88.648954 c 3.739503,0 6.750003,-3.010499 6.750003,-6.75 V 7.9150229 c 0,-3.7394979 -3.0105,-6.7499969 -6.750003,-6.7499969 z"
         style="display:inline;opacity:0.15;fill:#000000;fill-opacity:1;fill-rule:nonzero;stroke:none" />
      <path
         style="display:inline;fill:url(#linearGradient4071);fill-opacity:1;fill-rule:nonzero;stroke:none"
         d="M 88.006093,1.915026 H 8.2918111 c -3.680143,0 -6.6428566,2.962713 -6.6428566,6.6428549 V 88.272171 c 0,3.680142 2.9627136,6.642856 6.6428566,6.642856 H 88.006093 c 3.680143,0 6.642854,-2.962714 6.642854,-6.642856 V 8.5578809 c 0,-3.6801419 -2.962711,-6.6428549 -6.642854,-6.6428549 z"
         id="rect4251-1"
         inkscape:connector-curvature="0" />
      <path
         style="display:inline;opacity:0.77864583;fill:#f5f3f3;fill-opacity:1;fill-rule:nonzero;stroke:none;stroke-width:1.02950251"
         d="m 11.390247,6.8021682 c -2.8564964,0 -5.1241284,2.2883782 -5.1241284,5.1710028 v 21.42734 7.239403 39.913674 c 1.0972399,1.684484 2.9688485,2.811732 5.1241284,2.811732 h 4.099303 65.588849 4.099302 c 2.155281,0 4.026889,-1.127248 5.124129,-2.811732 V 40.639914 33.400511 11.973171 c 0,-2.8826246 -2.267632,-5.1710028 -5.124129,-5.1710028 z"
         id="path3400-6"
         inkscape:connector-curvature="0"
         sodipodi:nodetypes="sscccsccscccsss" />
      <path
         inkscape:connector-curvature="0"
         id="path4989"
         d="m 9.9740341,5.1444869 c -3.116621,0 -5.667965,2.53951 -5.667965,5.6460041 v 69.277996 c 0,3.106495 2.551344,5.646004 5.667965,5.646004 H 86.765819 c 3.116621,0 5.667968,-2.539509 5.667968,-5.646004 V 10.790491 c 0,-3.1064931 -2.551347,-5.6460041 -5.667968,-5.6460041 z m 0,2.319439 H 86.765819 c 1.888099,0 3.352022,1.480095 3.352022,3.3265651 v 69.277996 c 0,1.846474 -1.463923,3.326564 -3.352022,3.326564 H 9.9740341 c -1.888099,0 -3.352022,-1.48009 -3.352022,-3.326564 V 10.790491 c 0,-1.8464701 1.463923,-3.3265651 3.352022,-3.3265651 z"
         style="color:#000000;font-style:normal;font-variant:normal;font-weight:normal;font-stretch:normal;font-size:medium;line-height:normal;font-family:Sans;-inkscape-font-specification:Sans;text-indent:0;text-align:start;text-decoration:none;text-decoration-line:none;letter-spacing:normal;word-spacing:normal;text-transform:none;writing-mode:lr-tb;direction:ltr;baseline-shift:baseline;text-anchor:start;display:inline;overflow:visible;visibility:visible;fill:#1f2224;fill-opacity:0.63265303;stroke:none;stroke-width:2.3755002;marker:none;enable-background:accumulate" />
      <path
         inkscape:connector-curvature="0"
         style="display:inline;opacity:0.65818182;fill:url(#linearGradient4129);fill-opacity:1;fill-rule:nonzero;stroke:none"
         d="m 1.6489535,82.258776 v 6 c 0,3.680142 2.9761066,6.65625 6.6562496,6.65625 H 87.992703 c 3.680143,0 6.656254,-2.976108 6.656254,-6.65625 v -6 c 0,3.680142 -2.976111,6.65625 -6.656254,6.65625 H 8.3052031 c -3.680143,0 -6.6562496,-2.976108 -6.6562496,-6.65625 z"
         id="path4118" />
      <rect
         style="opacity:0.55;fill:url(#radialGradient7462);fill-opacity:1;stroke:none"
         id="rect4131"
         width="84.250008"
         height="4.25"
         x="5.5239539"
         y="80.665031"
         rx="0"
         ry="4.25" />
      <rect
         ry="4.25"
         rx="0"
         y="-90.233963"
         x="5.9750223"
         height="4.25"
         width="76.75"
         id="rect4141"
         style="opacity:0.669;fill:url(#radialGradient7464);fill-opacity:1;stroke:none"
         transform="rotate(90)" />
      <g
         id="layer1"
         transform="matrix(4.2544934,0,0,4.2544934,1.3495291,-4387.3378)">
        <path
           id="rect4314"
           class="ColorScheme-Text"
           style="color:#4d4d4d;fill:currentColor"
           d="M 3,5 V 6 H 19 V 5 Z m 8.801,2.0996 C 10.659,7.0848 9.59,7.7904 8.7324,9 H 3 v 1 H 8.1328 C 7.6981,10.852 7.361,11.871 7.1289,13 H 3 v 1 H 6.9512 C 6.9164,14.267 6.8807,14.534 6.8594,14.807 6.875,14.698 6.8919,14.592 6.9102,14.484 6.9677,14.324 7.0343,14.162 7.0938,14 H 14.145 A 1.9977,1.9977 0 0 0 15.473,15.322 1.9977,1.9977 0 0 0 17.961,14 H 19 V 13 H 18.004 A 1.9977,1.9977 0 0 0 16.635,11.5 L 16.627,11.498 A 1.9977,1.9977 0 0 0 14.139,12.832 1.9977,1.9977 0 0 0 14.098,13 H 7.4707 c 0.4324,-1.092 0.9164,-2.14 1.4727,-3 h 6.0646 l 0.002,0.002 c 0.285,0.327 0.58,0.697 0.885,1.115 C 15.748,10.718 15.58,10.349 15.402,10 H 19 V 9 H 14.799 C 14.328,8.337 13.797,7.8182 13.221,7.4961 L 13.1,7.4316 C 12.677,7.2176 12.24,7.1062 11.801,7.1016 Z M 11.99,7.9922 C 12.595,8.0598 13.261,8.3898 13.986,9 H 9.7031 C 10.366,8.2981 11.118,7.8946 11.99,7.9922 Z m 4.067,4.4648 a 0.97972,0.97972 0 0 1 0.255,0.035 l 0.026,0.008 a 0.97972,0.97972 0 0 1 0.652,1.217 0.97972,0.97972 0 0 1 -1.213,0.66 0.97972,0.97972 0 0 1 -0.668,-1.209 0.97972,0.97972 0 0 1 0.948,-0.711 z M 7.0977,15.414 A 1.9977,1.9977 0 0 0 5.1387,16.832 1.9977,1.9977 0 0 0 5.0977,17 H 3 v 1 H 5.1445 A 1.9977,1.9977 0 0 0 6.4707,19.322 1.9977,1.9977 0 0 0 8.9609,18 h 10.039 V 17 H 9.0038 A 1.9977,1.9977 0 0 0 7.6347,15.5 L 7.6269,15.498 A 1.9977,1.9977 0 0 0 7.0976,15.414 Z m -0.0411,1.043 a 0.97972,0.97972 0 0 1 0.2559,0.035 L 7.3379,16.5 a 0.97972,0.97972 0 0 1 0.6523,1.217 0.97972,0.97972 0 0 1 -1.2129,0.66 0.97972,0.97972 0 0 1 -0.6679,-1.209 0.97972,0.97972 0 0 1 0.9472,-0.711 z"
           transform="translate(0,1030.4)"
           inkscape:connector-curvature="0" />
      </g>
      <rect
         transform="matrix(1.0692451,0,0,1.0476829,4.4441802,38.894013)"
         style="opacity:0.5078125;fill:url(#linearGradient4767);fill-opacity:1;stroke:none"
         id="rect4146"
         width="75.965775"
         height="69.024437"
         x="2"
         y="-30"
         rx="3.9569874"
         ry="3.9569881"
         clip-path="url(#clipPath4156-4-1)" />
    </g>
  </g>
</svg>

<?xml version="1.0" encoding="UTF-8"?>
<!-- Created with Inkscape (http://www.inkscape.org/) -->
<svg width="96" height="96" version="1.1" viewBox="0 0 418.91 418.91" xmlns="http://www.w3.org/2000/svg" xmlns:cc="http://creativecommons.org/ns#" xmlns:dc="http://purl.org/dc/elements/1.1/" xmlns:rdf="http://www.w3.org/1999/02/22-rdf-syntax-ns#" xmlns:xlink="http://www.w3.org/1999/xlink">
<defs>
<style type="text/css">.ColorScheme-Text {
        color:#4d4d4d;
      }</style>
<linearGradient id="linearGradient4071" x1="6" x2="90" y1="47" y2="47" gradientTransform="matrix(1.1071 0 0 1.1071 -4.9939 -3.6207)" gradientUnits="userSpaceOnUse">
<stop stop-color="#b2babc" offset="0"/>
<stop stop-color="#fff" offset=".25"/>
<stop stop-color="#96a1a4" offset=".5"/>
<stop stop-color="#f9fafb" offset=".75"/>
<stop stop-color="#b2b9bc" offset="1"/>
</linearGradient>
<linearGradient id="linearGradient4129" x1="1.5" x2="94.5" y1="88.172" y2="88.172" gradientTransform="translate(.14895 .41503)" gradientUnits="userSpaceOnUse">
<stop offset="0"/>
<stop stop-opacity=".58824" offset=".1"/>
<stop stop-opacity=".58824" offset=".9"/>
<stop offset="1"/>
</linearGradient>
<radialGradient id="radialGradient7462" cx="13.948" cy="44.893" r="43.199" gradientTransform="matrix(.97513 0 0 .049191 34.048 80.582)" gradientUnits="userSpaceOnUse" xlink:href="#linearGradient3737"/>
<linearGradient id="linearGradient3737">
<stop stop-color="#fff" offset="0"/>
<stop stop-color="#fff" stop-opacity="0" offset="1"/>
</linearGradient>
<radialGradient id="radialGradient7464" cx="13.948" cy="44.893" r="43.199" gradientTransform="matrix(.88833 0 0 .049191 31.96 -90.317)" gradientUnits="userSpaceOnUse" xlink:href="#linearGradient3737"/>
<linearGradient id="linearGradient4767" x1="2.7714" x2="50.528" y1="-28.642" y2="14.514" gradientUnits="userSpaceOnUse" xlink:href="#linearGradient3737"/>
<clipPath id="clipPath4156-4-1">
<path d="m27.046-55.695-14.214 13.321h0.06127l15.653 21.771 10.231-10.546c-0.2169-1.1522-11.311-23.67-11.732-24.546zm-17.399 16.313-14.888 14.062 21.229 17.515 10.385-10.577zm31.491 12.951-9.7413 9.7136 8.9448 12.458 7.7808-7.555zm-49.84 4.3788-13.754 12.982 26.283 13.846 0.06127-0.0617-0.12253-0.0617 9.8332-10.053-22.301-16.652zm38.015 7.4008-9.8025 9.7753 11.579 9.5594 7.6276-7.4008-8.6691-11.009zm20.187 5.674-7.3825 7.2158 6.1878 8.5418 5.8202-6.1365zm-32.195 6.3215-9.5575 9.4977 13.662 7.185 7.9339-7.6784zm23.312 2.3744-7.1068 6.9383 8.3628 6.9074 5.3608-5.674-0.06127-0.0925-0.0919 0.12335-6.4635-8.2026zm-8.7304 8.5418-7.5051 7.3392 10.354 5.4581c1.3975-1.321 5.6751-6.1229 5.8509-6.3215z" fill="#fff" opacity=".6"/>
</clipPath>
</defs>
<metadata>
<rdf:RDF>
<cc:Work rdf:about="">
<dc:format>image/svg+xml</dc:format>
<dc:type rdf:resource="http://purl.org/dc/dcmitype/StillImage"/>
<dc:title/>
</cc:Work>
</rdf:RDF>
</metadata>
<g transform="matrix(4.3636 0 0 4.3636 -2.2e-6 -4479.4)">
<g transform="translate(-.14896 1026.1)">
<path d="m89.292 0.41503h-82.286c-3.7988 0-6.8571 3.0583-6.8571 6.8571v82.286c0 3.7989 3.0583 6.8571 6.8571 6.8571h82.286c3.7989 0 6.8571-3.0583 6.8571-6.8571v-82.286c0-3.7989-3.0583-6.8571-6.8571-6.8571z" opacity=".15"/>
<path d="m88.649 1.165h-81c-3.7395 0-6.75 3.0105-6.75 6.75v81c0 3.7395 3.0105 6.75 6.75 6.75h81c3.7395 0 6.75-3.0105 6.75-6.75v-81c0-3.7395-3.0105-6.75-6.75-6.75z" opacity=".15"/>
<path d="m88.006 1.915h-79.714c-3.6801 0-6.6429 2.9627-6.6429 6.6429v79.714c0 3.6801 2.9627 6.6429 6.6429 6.6429h79.714c3.6801 0 6.6429-2.9627 6.6429-6.6429v-79.714c0-3.6801-2.9627-6.6429-6.6429-6.6429z" fill="url(#linearGradient4071)"/>
<path d="m11.39 6.8022c-2.8565 0-5.1241 2.2884-5.1241 5.171v68.58c1.0972 1.6845 2.9688 2.8117 5.1241 2.8117h73.787c2.1553 0 4.0269-1.1272 5.1241-2.8117v-68.58c0-2.8826-2.2676-5.171-5.1241-5.171z" fill="#f5f3f3" opacity=".77865"/>
<path d="m9.974 5.1445c-3.1166 0-5.668 2.5395-5.668 5.646v69.278c0 3.1065 2.5513 5.646 5.668 5.646h76.792c3.1166 0 5.668-2.5395 5.668-5.646v-69.278c0-3.1065-2.5513-5.646-5.668-5.646zm0 2.3194h76.792c1.8881 0 3.352 1.4801 3.352 3.3266v69.278c0 1.8465-1.4639 3.3266-3.352 3.3266h-76.792c-1.8881 0-3.352-1.4801-3.352-3.3266v-69.278c0-1.8465 1.4639-3.3266 3.352-3.3266z" color="#000000" fill="#1f2224" fill-opacity=".63265" style="text-decoration-line:none;text-indent:0;text-transform:none"/>
<path d="m1.649 82.259v6c0 3.6801 2.9761 6.6562 6.6562 6.6562h79.687c3.6801 0 6.6563-2.9761 6.6563-6.6562v-6c0 3.6801-2.9761 6.6562-6.6563 6.6562h-79.687c-3.6801 0-6.6562-2.9761-6.6562-6.6562z" fill="url(#linearGradient4129)" opacity=".65818"/>
<rect x="5.524" y="80.665" width="84.25" height="4.25" rx="0" ry="4.25" fill="url(#radialGradient7462)" opacity=".55"/>
<rect transform="rotate(90)" x="5.975" y="-90.234" width="76.75" height="4.25" rx="0" ry="4.25" fill="url(#radialGradient7464)" opacity=".669"/>
<g transform="matrix(4.2545 0 0 4.2545 1.3495 -4387.3)">
<path class="ColorScheme-Text" transform="translate(0,1030.4)" d="m3 5v1h16v-1zm8.801 2.0996c-1.142-0.0148-2.211 0.6908-3.0686 1.9004h-5.7324v1h5.1328c-0.4347 0.852-0.7718 1.871-1.0039 3h-4.1289v1h3.9512c-0.0348 0.267-0.0705 0.534-0.0918 0.807 0.0156-0.109 0.0325-0.215 0.0508-0.323 0.0575-0.16 0.1241-0.322 0.1836-0.484h7.0512a1.9977 1.9977 0 0 0 1.328 1.322 1.9977 1.9977 0 0 0 2.488-1.322h1.039v-1h-0.996a1.9977 1.9977 0 0 0-1.369-1.5l-8e-3 -2e-3a1.9977 1.9977 0 0 0-2.488 1.334 1.9977 1.9977 0 0 0-0.041 0.168h-6.6273c0.4324-1.092 0.9164-2.14 1.4727-3h6.0646l2e-3 2e-3c0.285 0.327 0.58 0.697 0.885 1.115-0.147-0.399-0.315-0.768-0.493-1.117h3.598v-1h-4.201c-0.471-0.663-1.002-1.1818-1.578-1.5039l-0.121-0.0645c-0.423-0.214-0.86-0.3254-1.299-0.33zm0.189 0.8926c0.605 0.0676 1.271 0.3976 1.996 1.0078h-4.2829c0.6629-0.7019 1.4149-1.1054 2.2869-1.0078zm4.067 4.4648a0.97972 0.97972 0 0 1 0.255 0.035l0.026 8e-3a0.97972 0.97972 0 0 1 0.652 1.217 0.97972 0.97972 0 0 1-1.213 0.66 0.97972 0.97972 0 0 1-0.668-1.209 0.97972 0.97972 0 0 1 0.948-0.711zm-8.9593 2.957a1.9977 1.9977 0 0 0-1.959 1.418 1.9977 1.9977 0 0 0-0.041 0.168h-2.0977v1h2.1445a1.9977 1.9977 0 0 0 1.3262 1.322 1.9977 1.9977 0 0 0 2.4902-1.322h10.039v-1h-9.9961a1.9977 1.9977 0 0 0-1.3691-1.5l-0.0078-2e-3a1.9977 1.9977 0 0 0-0.5293-0.084zm-0.0411 1.043a0.97972 0.97972 0 0 1 0.2559 0.035l0.0254 8e-3a0.97972 0.97972 0 0 1 0.6523 1.217 0.97972 0.97972 0 0 1-1.2129 0.66 0.97972 0.97972 0 0 1-0.6679-1.209 0.97972 0.97972 0 0 1 0.9472-0.711z" color="#4d4d4d" fill="currentColor"/>
</g>
<rect transform="matrix(1.0692 0 0 1.0477 4.4442 38.894)" x="2" y="-30" width="75.966" height="69.024" rx="3.957" ry="3.957" clip-path="url(#clipPath4156-4-1)" fill="url(#linearGradient4767)" opacity=".50781"/>
</g>
</g>
</svg>
